static/img/logo.svg

<?xml version="1.0" encoding="UTF-8" standalone="no"?>
<svg width="177px" height="39px" viewBox="0 0 177 39" version="1.1" xmlns="http://www.w3.org/2000/svg" xmlns:xlink="http://www.w3.org/1999/xlink">
    <!-- Generator: Sketch 45.2 (43514) - http://www.bohemiancoding.com/sketch -->
    <title>Large Screen</title>
    <desc>Created with Sketch.</desc>
    <defs></defs>
    <g id="Page-1" stroke="none" stroke-width="1" fill="none" fill-rule="evenodd">
        <g id="Large-Screen" transform="translate(-43.000000, -46.000000)">
            <g id="Logo-+-Nav" transform="translate(43.000000, 46.000000)">
                <g id="Group-13">
                    <g id="Group-2">
                        <polygon id="Rectangle-2" fill="#000000" points="0 0 119 0 119 38.4428571 0 38.4428571"></polygon>
                        <polygon id="Rectangle-2" fill="#000000" points="123 0 177 0 177 38.4428571 123 38.4428571"></polygon>
                        <path d="M109.187993,25.3923429 L109.250575,27.5139429 C108.499586,27.9195429 107.59214,28.1691429 106.715986,28.1691429 C104.807221,28.1691429 103.805902,27.1083429 103.586863,25.3923429 C102.804582,26.7963429 101.365186,28.1691429 99.0809263,28.1691429 C97.0469965,28.1691429 94.7627368,27.1083429 94.7627368,24.1443429 C94.7627368,20.7123429 98.0483158,19.9011429 101.333895,19.9011429 C102.084884,19.9011429 102.898456,19.9011429 103.586863,20.0259429 L103.586863,19.5579429 C103.586863,18.0915429 103.586863,16.4067429 101.333895,16.4067429 C100.45774,16.4067429 99.8006246,16.4379429 99.1435088,16.8123429 L98.6741404,18.4035429 L95.4824351,18.0291429 L96.014386,14.7843429 C98.4551018,13.8171429 99.7693333,13.5051429 102.084884,13.5051429 C105.057551,13.5051429 107.686014,15.0963429 107.686014,18.3099429 L107.686014,24.3939429 C107.686014,25.2363429 107.998926,25.4859429 108.656042,25.4859429 C108.781207,25.4859429 109.000246,25.4859429 109.187993,25.3923429 Z M100.551614,25.3299429 C101.991011,25.3299429 103.492989,24.2379429 103.586863,21.9291429 C102.929747,21.8355429 102.24134,21.7419429 101.584225,21.7419429 C100.144828,21.7419429 98.8618877,22.1163429 98.8618877,23.7075429 C98.8618877,24.5811429 99.3625474,25.3299429 100.551614,25.3299429 Z M91.1329544,6.39154286 L95.1069404,6.39154286 L89.0051509,27.8571429 L85.0624561,27.8571429 L91.1329544,6.39154286 Z M82.9659439,6.39154286 L86.9399298,6.39154286 L80.8381404,27.8571429 L76.8641544,27.8571429 L82.9659439,6.39154286 Z M70.0113754,18.8403429 L74.2044,18.8403429 L74.2044,13.7859429 L70.0113754,13.7859429 L70.0113754,18.8403429 Z M70.0113754,27.8571429 L74.2044,27.8571429 L74.2044,22.8027429 L70.0113754,22.8027429 L70.0113754,27.8571429 Z M63.1898877,24.8307429 L58.6213684,24.8307429 L66.4441754,15.8763429 L66.1312632,13.7859429 L53.7086456,13.7859429 L53.207986,18.7155429 L56.1806526,19.0275429 L56.8064772,16.8123429 L61.1872491,16.8123429 L53.4270246,25.7355429 L53.8338105,27.8571429 L66.1938456,27.8571429 L67.0387088,22.9275429 L63.8470035,22.6467429 L63.1898877,24.8307429 Z M43.6328702,13.5051429 C48.7020491,13.5051429 51.2053474,16.9059429 51.2053474,20.8683429 C51.2053474,25.3299429 47.9197684,28.1691429 43.4138316,28.1691429 C39.0330596,28.1691429 36.060393,25.5483429 36.060393,21.0243429 C36.060393,16.9059429 38.5636912,13.5051429 43.6328702,13.5051429 Z M43.5077053,25.0803429 C45.6355088,25.0803429 47.0123228,23.3955429 47.0123228,20.7123429 C47.0123228,17.9043429 45.4790526,16.5939429 43.5702877,16.5939429 C41.5050667,16.5939429 40.1908351,18.1539429 40.1908351,20.7747429 C40.1908351,23.1771429 41.3486105,25.0803429 43.5077053,25.0803429 Z M32.4306105,18.4035429 C32.4306105,15.0339429 30.0837684,13.5051429 27.6117614,13.5051429 C25.358793,13.5051429 23.7316491,14.6907429 22.9806596,16.5627429 C22.3235439,14.4723429 20.4460702,13.5051429 18.3808491,13.5051429 C16.4095018,13.5051429 14.938814,14.4411429 14.0939509,15.9075429 L14.0939509,13.7859429 L8.17990877,13.7859429 L8.17990877,16.8435429 L10.0573825,16.8435429 L10.0573825,24.8307429 L8.17990877,24.8307429 L8.17990877,27.8571429 L16.7537053,27.8571429 L16.7537053,24.8307429 L14.0939509,24.8307429 L14.0939509,19.9011429 C14.0939509,17.9355429 14.9075228,16.5627429 16.8162877,16.5627429 C18.3808491,16.5627429 19.2257123,17.5299429 19.2257123,19.9635429 L19.2257123,27.8571429 L25.1397544,27.8571429 L25.1397544,24.8307429 L23.2622807,24.8307429 L23.2622807,19.9011429 C23.2622807,17.9355429 24.0445614,16.5627429 25.9533263,16.5627429 C27.6117614,16.5627429 28.4253333,17.5299429 28.4253333,19.9635429 L28.4253333,27.8571429 L34.3393754,27.8571429 L34.3393754,24.8307429 L32.4306105,24.8307429 L32.4306105,18.4035429 Z" id="mozilla" fill="#FFFFFF"></path>
                    </g>
                    <path d="M150.066,11.076 L150.066,8.9 L142.314,8.9 L142.314,11.076 L145.442,11.076 L139.254,27.328 L139.084,27.328 L132.76,11.076 L135.854,11.076 L135.854,8.9 L127.864,8.9 L127.864,11.076 L130.04,11.076 L138.03,31 L140.002,31 L147.992,11.076 L150.066,11.076 Z M170.67,31 L166.25,31 L161.49,21.752 L156.764,21.752 L156.764,28.824 L159.722,28.824 L159.722,31 L151.46,31 L151.46,28.824 L154.248,28.824 L154.248,11.076 L151.46,11.076 L151.46,8.9 L161.014,8.9 C166.488,8.9 168.664,11.586 168.664,15.156 C168.664,18.012 167.066,20.46 163.938,21.276 L167.882,28.824 L170.67,28.824 L170.67,31 Z M166.046,15.258 C166.046,12.368 164.482,11.076 160.708,11.076 L156.764,11.076 L156.764,19.678 L160.776,19.678 C164.55,19.678 166.046,18.012 166.046,15.258 Z" id="VR" fill="#FFFFFF"></path>
                </g>
            </g>
        </g>
    </g>
</svg>

<svg width="177" height="39" viewBox="0 0 177 39" xmlns="http://www.w3.org/2000/svg">
  <title>
    Large Screen
  </title>
  <g fill="none" fill-rule="evenodd">
    <path fill="#000" d="M0 0h119v38.443H0M123 0h54v38.443h-54"/>
    <path d="M109.188 25.392l.063 2.122c-.75.406-1.65.655-2.53.655-1.91 0-2.91-1.07-3.13-2.78-.78 1.4-2.22 2.77-4.5 2.77-2.033 0-4.317-1.06-4.317-4.026 0-3.43 3.285-4.243 6.57-4.243.75 0 1.565 0 2.254.126v-.47c0-1.465 0-3.15-2.253-3.15-.876 0-1.533.03-2.19.405l-.47 1.59-3.192-.373.533-3.246c2.44-.965 3.752-1.28 6.07-1.28 2.97 0 5.6 1.594 5.6 4.808v6.084c0 .843.31 1.093.97 1.093.123 0 .342 0 .53-.095zm-8.636-.062c1.44 0 2.94-1.092 3.035-3.4-.657-.094-1.346-.188-2.003-.188-1.44 0-2.722.374-2.722 1.966 0 .873.5 1.622 1.69 1.622zm-9.42-18.938h3.975l-6.102 21.465h-3.943l6.07-21.465zm-8.166 0h3.974l-6.102 21.465h-3.974l6.102-21.465zM70.01 18.84h4.194v-5.054H70.01v5.054zm0 9.017h4.194v-5.054H70.01v5.054zm-6.82-3.026h-4.57l7.824-8.95-.313-2.09H53.71l-.502 4.93 2.973.31.63-2.21h4.38l-7.76 8.924.41 2.12H66.2l.844-4.93-3.192-.28-.656 2.18zM43.633 13.51c5.07 0 7.572 3.4 7.572 7.363 0 4.46-3.285 7.3-7.79 7.3-4.382 0-7.355-2.62-7.355-7.144 0-4.12 2.504-7.52 7.573-7.52zm-.125 11.575c2.128 0 3.504-1.683 3.504-4.367 0-2.808-1.533-4.118-3.442-4.118-2.065 0-3.38 1.56-3.38 4.18 0 2.403 1.16 4.306 3.318 4.306zm-11.078-6.68c0-3.37-2.346-4.9-4.818-4.9-2.253 0-3.88 1.187-4.63 3.06-.658-2.092-2.536-3.06-4.6-3.06-1.972 0-3.443.937-4.288 2.404v-2.13H8.18v3.057h1.877v7.988H8.18v3.03h8.574v-3.03h-2.66V19.9c0-1.964.814-3.337 2.722-3.337 1.565 0 2.41.967 2.41 3.4v7.894h5.914V24.83h-1.878V19.9c0-1.964.783-3.337 2.69-3.337 1.66 0 2.473.967 2.473 3.4v7.894h5.914V24.83h-1.91v-6.426zm117.636-7.328V8.9h-7.752v2.176h3.128l-6.188 16.252h-.17l-6.324-16.252h3.094V8.9h-7.99v2.176h2.176L138.03 31h1.972l7.99-19.924h2.074zM170.67 31h-4.42l-4.76-9.248h-4.726v7.072h2.958V31h-8.262v-2.176h2.788V11.076h-2.788V8.9h9.554c5.474 0 7.65 2.686 7.65 6.256 0 2.856-1.598 5.304-4.726 6.12l3.944 7.548h2.788V31zm-4.624-15.742c0-2.89-1.564-4.182-5.338-4.182h-3.944v8.602h4.012c3.774 0 5.27-1.666 5.27-4.42z" fill="#FFF"/>
  </g>
</svg>
